X: 1
T: Giller\aasen
O: fr\aan Gjemmes, Norge
S: uppt. Timo Hukkanen, NORDLEK 2009 video
F: http://www.nordlek.fi/dokum/GillerasenAm.pdf
Z: 2009 John Chambers <jc:trillian.mit.edu>
M: 3/4
L: 1/8
Q: 1/4=146
K: Ador
"intro"y2\
"Am"ed Bc Ac | "E"(3EF^G "Am"A3 !Segno!|: B \
| "Am"c2 c>B c>e | "E7"(3dBd "Am"(3cAc "E7"(3B^GB \
| "Am"c2 c>B c>e | "D"(3def "E7"e2 A>B |
| "Am"c2 c>B c>e | "E7"(3dBd "Am"(3cAc "E7"(3B^GB \
| "Am"A2 A>c "E7"(3ef^g | "Am"a2 A3 :: z \
| "Am"(3aba (3gag "D"f2 | fe ce A>c |
| "E7"ed Bc "Am"Ac | "E7"efe def e2 \
| "Am"(3aba (3gag "D"f2 | fe ce A>c \
| "E7"ed Bc "Am"Ac | "E7"(3EF^G "Am"A3 "d.S."y/:|
